X:02091
T:Delvine Side
T:8 x 32S 3C (RSCDS Book 2)
%
P:Delvine Side
O:RSCDS and Skye Colln., arr. T. Traub 2-26-2004
R:Strathspey
M:4/4
L:1/8
K:Em
F |:\
"Em"E>e d/^c/B/A/ B<EB>A | "Em"E>e d/^c/B/A/ "D"d<DA>F |\
"Em"E>e d/^c/B/A/ B<EB>e | "D"f<a "A"e>f "Bm"d>B A<F :|
"Em"B<EB>A B>E B<e | "Em"B<EB>A "D"d>B A<F |\
"Em"B<EB>A B>E "G"B<g | "D"f<ae>f "Bm"d>B A<F |
"Em"B<EB>A B>E B<e | "Em"B<EB>A "D"d>B A<F |\
"Em"E>FG>A "G"B>A B<g |1 "D"f<a "A"e>f "D"d>F "Bm"B/A/G/F/ :|2 "D"f<a "A"e>f "Em"e<E E |]
